X: 28898
T: Myxamatosis
R: slip jig
M: 9/8
K: Amixolydian
M:7/8
K: F# Phrygian
|:F^Ac cf gf|edc Bc GF|EBE EB Ed|eEB EG FE|
F^Ac cf gf|edc Bc g^a|bg^a bf gf|eEd c^A GF:|
|:cFc fF dc|Fc^A dc BA|GEB c^A BE|eEd c^A GF|
[1 cFc fF dc|Fc^A dc ba|geb c’^a bd|eEd c^A GF:|
[2 f^ac’ d’b c’a|bfd ge fd|edc ^Ac AG|eEG F2- F2||
|:EEF GE GF|c^Ac BA GF|EFE GE GF|dBd c^A BA|
EEF GE GF|c^Ac BA GF|EFE GE GF|1 EGE Fc ^AG:|2 EGE F2- F2||

